X:380
T: Bob and Joan
S: "Roche Collection of Traditional Irish Music" [II/61/345]
L: 1/8
M: 9/8
R: slip jig
K: G
B2G G2D G2A | B2G G2D FGA |
B2G G2D G2F | E2A A2G FGA :|
D2d d2c B2A | D2d d2c Bcd |
e2f g2e d2B | c2B A2G FGA :|
